X: 1
T: BONNIE KATE'S -- REEL
B: Ryan's Mammoth Collection of Fiddle Tunes
R: reel
M: C|
L: 1/8
Z: Contributed 20010523141856 by John Chambers jc:trillian.mit.edu
K: D
vdB \
| AFdA ((3Bcd).A.F | (DF)AF ECEG | DFDF GBEd | ceAc ecdB \
| AFdc BAGF | GFED CEA,G | FADF GBEd | cABc d2 :|
|: ((3uefg) \
| a2fd adbd | adfd cdef | g2gf gbag | fedc defg \
| a2fd ((3fga).f.d | fafd cdef | gdBd gbag | fedc d2 :|
